X:12690
%15896
T:St.Mary's
C:Trad
S:Begged, Borrowed or Stolen
N:\#40
K:Cmaj
M:4/4
G,2|: C2E2 D2ED | C2c2 ABcA | G2E2 EDCD | E3D CB,A,G, | 
C2E2 D2ED|C2c2 ABcA | G2E2D2ED | [1C6G,2:| [2C6D2
%Warning : No repeat expected, found :|
:|
|:E2G2 c3G | E2G2 c3G | E2G2 c2A2 | B4 B3c |
dedc BcBA | G2E2 D2CD | E2A2 GEDE | C8:|


